X:0
T:O Wha is She that Lo'es Me
T:Morag
G:Gaelic song, later used by Burns
S:G.F. Graham, Popular Songs and Melodies of Scotland
M:C
L:1/8
Q:1/8=100
K:CMin
G   |c>de>c d2 G>G|c>ed>c B>AG>G|
     c>de>f d2 e>c|B>GF>E e2 e>f|g>ed>B c>de||
e   |c>BG>F E>EF>G|A>FG>E C2 e
e/c/|c>BG>F E>DF>G|A>FG>E C2 C |]
